lg/pushbullet.svg

<svg viewBox="0 0 256 256" xmlns="http://www.w3.org/2000/svg" xmlns:xlink="http://www.w3.org/1999/xlink" preserveAspectRatio="xMidYMid" height="1em" width="1em">
  <defs>
    <linearGradient x1="8.59%" y1="1.954%" x2="77.471%" y2="73.896%" id="c">
      <stop stop-color="#4CB36B" offset="0%"/>
      <stop stop-color="#3EA16F" offset="100%"/>
    </linearGradient>
    <path id="a" d="M256 128c0 70.692-57.308 128-128 128C57.308 256 0 198.692 0 128 0 57.308 57.308 0 128 0c70.692 0 128 57.308 128 128"/>
  </defs>
  <mask id="b" fill="#fff">
    <use xlink:href="#a"/>
  </mask>
  <use fill="#67BF79" xlink:href="#a"/>
  <path d="M256 128c0 70.692-57.308 128-128 128C57.308 256 0 198.692 0 128 0 57.308 57.308 0 128 0c70.692 0 128 57.308 128 128" fill="#67BF79" mask="url(#b)"/>
  <path d="M63.111 187.022 96.178 72l64.533 60.978L200 90.133l87.533 86.289-110.844 124.889L63.111 187.022" fill="url(#c)" mask="url(#b)"/>
  <path d="M77 189.6c-16.733 0-16.733 0-16.733-16.733V81c0-16.733 0-16.733 16.733-16.733h3.334c16.733 0 16.733 0 16.733 16.733v91.867c0 16.733 0 16.733-16.733 16.733H77Zm44.041 0c-5.699 0-8.508-2.809-8.508-8.508V72.774c0-5.698 2.809-8.507 8.508-8.507h37.537c32.178 0 52.628 32.273 52.628 63.025 0 30.752-20.628 62.308-52.628 62.308h-37.537Z" fill="#FFF" mask="url(#b)"/>
</svg>

<svg viewBox="0 0 256 256" version="1.1" xmlns="http://www.w3.org/2000/svg" xmlns:xlink="http://www.w3.org/1999/xlink" preserveAspectRatio="xMidYMid" height="1em" width="1em">
  <defs>
    <path id="a" d="M256,128 C256,198.692 198.692,256 128,256 C57.308,256 0,198.692 0,128 C0,57.308 57.308,0 128,0 C198.692,0 256,57.308 256,128"/>
    <linearGradient x1="8.59001137%" y1="1.95448636%" x2="77.4705802%" y2="73.8962145%" id="c">
      <stop stop-color="#4CB36B" offset="0%"/>
      <stop stop-color="#3EA16F" offset="100%"/>
    </linearGradient>
  </defs>
  <g>
    <mask id="b" fill="white">
      <use xlink:href="#a"/>
    </mask>
    <use fill="#67BF79" xlink:href="#a"/>
    <path d="M256,128 C256,198.692 198.692,256 128,256 C57.308,256 0,198.692 0,128 C0,57.308 57.308,0 128,0 C198.692,0 256,57.308 256,128" fill="#67BF79" mask="url(#b)"/>
    <path d="M63.111,187.022 L96.178,72 L160.711,132.978 L200,90.133 L287.533,176.422 L176.689,301.311 L63.111,187.022" fill="url(#c)" mask="url(#b)"/>
    <path d="M77,189.6 C60.267,189.6 60.267,189.6 60.267,172.867 L60.267,81 C60.267,64.267 60.267,64.267 77,64.267 L80.334,64.267 C97.0669992,64.267 97.0669992,64.267 97.067,81 L97.067,172.867 C97.0669992,189.6 97.0669992,189.6 80.334,189.6 L77,189.6 Z" fill="#FFFFFF" mask="url(#b)"/>
    <path d="M121.041,189.6 C115.342,189.6 112.533,186.791 112.533,181.092 L112.533,72.774 C112.533,67.076 115.342,64.267 121.041,64.267 L158.578,64.267 C190.756,64.267 211.206,96.54 211.206,127.292 C211.206,158.044 190.578,189.6 158.578,189.6 L121.041,189.6 Z" fill="#FFFFFF" mask="url(#b)"/>
  </g>
</svg>
